svg/系统配置5.svg

<svg width="48" height="48" viewBox="0 0 48 48" fill="none" xmlns="http://www.w3.org/2000/svg"><rect width="48" height="48" fill="#DADADA"/><mask id="path-2-inside-1_2483_15959" fill="white"><path d="M348 91L-1092 90.9999L-1092 -18.0001L348 -18L348 91Z"/></mask><path d="M348 91L-1092 90.9999L-1092 -18.0001L348 -18L348 91Z" fill="white"/><path d="M0 10C0 4.47715 4.47715 0 10 0H38C43.5229 0 48 4.47715 48 10V38C48 43.5229 43.5228 48 38 48H10C4.47715 48 0 43.5228 0 38V10Z" fill="url(#paint0_linear_2483_15959)"/><path d="M38.0629 19.1444C37.8921 18.6046 37.3797 18.2417 36.8033 18.2477C36.7911 18.2477 36.7789 18.2477 36.7667 18.2477C35.2966 18.2477 34.101 17.0721 34.101 15.6176C34.101 15.1978 34.1986 14.8049 34.3755 14.457C34.6286 13.9502 34.5158 13.3414 34.0949 12.9576C32.4174 11.4191 30.3678 10.2675 28.0894 9.64675C27.4947 9.48481 26.8633 9.75771 26.5827 10.2975C26.1405 11.1552 25.2377 11.734 24.2037 11.734C23.1698 11.734 22.2701 11.1552 21.8248 10.2975C21.5442 9.75471 20.9159 9.48481 20.3181 9.64675C18.0428 10.2675 15.9932 11.4191 14.3126 12.9576C13.8948 13.3414 13.7789 13.9502 14.032 14.457C14.2059 14.8049 14.3065 15.1978 14.3065 15.6176C14.3065 17.0721 13.1109 18.2477 11.6408 18.2477C11.6286 18.2477 11.6164 18.2477 11.6042 18.2477C11.0308 18.2387 10.5184 18.6046 10.3446 19.1444C9.91149 20.4999 9.67969 21.9424 9.67969 23.4358C9.67969 24.4225 9.78034 25.3852 9.97554 26.3148C10.1097 26.9566 10.7136 27.3944 11.3755 27.3315C11.4639 27.3225 11.5524 27.3195 11.6408 27.3195C13.1109 27.3195 14.3065 28.495 14.3065 29.9495C14.3065 30.5973 14.0717 31.1881 13.6782 31.6439C13.2512 32.1447 13.2756 32.8795 13.7362 33.3533C15.4503 35.1077 17.6158 36.4332 20.0497 37.147C20.7268 37.3449 21.4435 36.973 21.6601 36.3103C22.0047 35.2486 23.0142 34.4839 24.2007 34.4839C25.3871 34.4839 26.3967 35.2486 26.7413 36.3103C26.9579 36.973 27.6716 37.3449 28.3517 37.147C30.7887 36.4332 32.9542 35.1077 34.6652 33.3533C35.1258 32.8825 35.1502 32.1447 34.7232 31.6439C34.3297 31.1851 34.0949 30.5973 34.0949 29.9495C34.0949 28.495 35.2905 27.3195 36.7606 27.3195C36.8521 27.3195 36.9405 27.3225 37.0259 27.3315C37.6878 27.3944 38.2947 26.9566 38.4259 26.3148C38.618 25.3822 38.7217 24.4195 38.7217 23.4358C38.7217 21.9424 38.4899 20.4999 38.0568 19.1444H38.0629ZM24.2068 29.0229C21.0501 29.0229 18.4881 26.5068 18.4881 23.3999C18.4881 20.293 21.047 17.7769 24.2068 17.7769C27.3666 17.7769 29.9255 20.293 29.9255 23.3999C29.9255 26.5068 27.3666 29.0229 24.2068 29.0229Z" fill="url(#paint1_linear_2483_15959)" stroke="url(#paint2_linear_2483_15959)" stroke-width="0.4"/><path opacity="0.8" d="M23.9989 26.8C25.8924 26.8 27.4275 25.2778 27.4275 23.4C27.4275 21.5222 25.8924 20 23.9989 20C22.1053 20 20.5703 21.5222 20.5703 23.4C20.5703 25.2778 22.1053 26.8 23.9989 26.8Z" fill="url(#paint3_linear_2483_15959)"/><defs><linearGradient id="paint0_linear_2483_15959" x1="24" y1="48" x2="24" y2="2.28882e-05" gradientUnits="userSpaceOnUse"><stop stop-color="#8E8E93"/><stop offset="1" stop-color="#E5E5EA"/></linearGradient><linearGradient id="paint1_linear_2483_15959" x1="24.2007" y1="9.6001" x2="24.2007" y2="37.2001" gradientUnits="userSpaceOnUse"><stop stop-color="#7E7E7E"/><stop offset="1" stop-color="#434445"/></linearGradient><linearGradient id="paint2_linear_2483_15959" x1="24.2007" y1="9.6001" x2="24.2007" y2="37.2001" gradientUnits="userSpaceOnUse"><stop stop-color="#EDEDED"/><stop offset="1" stop-color="#343434"/></linearGradient><linearGradient id="paint3_linear_2483_15959" x1="23.9989" y1="20" x2="23.9989" y2="26.8" gradientUnits="userSpaceOnUse"><stop stop-color="white"/><stop offset="1" stop-color="#D0D0D0"/></linearGradient></defs></svg>

<svg fill="none" viewBox="0 0 48 48"><path fill="#DADADA" d="M0 0h48v48H0z"/><path fill="white" d="M348 91h-1440V-18H348z"/><path fill="url(#a)" d="M0 10C0 4.477 4.477 0 10 0h28c5.523 0 10 4.477 10 10v28c0 5.523-4.477 10-10 10H10C4.477 48 0 43.523 0 38z"/><path fill="url(#b)" stroke="url(#c)" stroke-width=".4" d="M38.063 19.144a1.3 1.3 0 0 0-1.26-.896h-.036c-1.47 0-2.666-1.176-2.666-2.63 0-.42.098-.813.275-1.161a1.26 1.26 0 0 0-.281-1.5 14.54 14.54 0 0 0-6.006-3.31 1.31 1.31 0 0 0-1.506.65 2.67 2.67 0 0 1-2.38 1.437 2.67 2.67 0 0 1-2.378-1.437 1.31 1.31 0 0 0-1.507-.65 14.6 14.6 0 0 0-6.005 3.31 1.265 1.265 0 0 0-.281 1.5c.174.348.274.74.274 1.16 0 1.455-1.195 2.63-2.665 2.63h-.037a1.3 1.3 0 0 0-1.26.897 14 14 0 0 0-.664 4.292c0 .986.1 1.95.296 2.879.134.642.738 1.08 1.4 1.016q.132-.011.265-.011c1.47 0 2.665 1.175 2.665 2.63a2.58 2.58 0 0 1-.628 1.694c-.427.5-.402 1.236.058 1.71a14.56 14.56 0 0 0 6.314 3.793 1.31 1.31 0 0 0 1.61-.837 2.66 2.66 0 0 1 2.54-1.826c1.187 0 2.197.765 2.541 1.826.217.663.93 1.035 1.61.837a14.5 14.5 0 0 0 6.314-3.794c.46-.47.485-1.208.058-1.71a2.59 2.59 0 0 1-.628-1.694c0-1.454 1.196-2.63 2.666-2.63q.137 0 .265.012a1.297 1.297 0 0 0 1.4-1.016c.192-.933.296-1.896.296-2.88 0-1.493-.232-2.935-.665-4.29zm-13.856 9.879c-3.157 0-5.719-2.516-5.719-5.623s2.559-5.623 5.719-5.623 5.718 2.516 5.718 5.623-2.558 5.623-5.718 5.623Z"/><path fill="url(#d)" d="M23.999 26.8c1.893 0 3.428-1.522 3.428-3.4S25.893 20 24 20s-3.429 1.522-3.429 3.4 1.535 3.4 3.429 3.4" opacity=".8"/><defs><linearGradient id="a" x1="24" x2="24" y1="48" y2="0" gradientUnits="userSpaceOnUse"><stop stop-color="#8E8E93"/><stop offset="1" stop-color="#E5E5EA"/></linearGradient><linearGradient id="b" x1="24.201" x2="24.201" y1="9.6" y2="37.2" gradientUnits="userSpaceOnUse"><stop stop-color="#7E7E7E"/><stop offset="1" stop-color="#434445"/></linearGradient><linearGradient id="c" x1="24.201" x2="24.201" y1="9.6" y2="37.2" gradientUnits="userSpaceOnUse"><stop stop-color="#EDEDED"/><stop offset="1" stop-color="#343434"/></linearGradient><linearGradient id="d" x1="23.999" x2="23.999" y1="20" y2="26.8" gradientUnits="userSpaceOnUse"><stop stop-color="white"/><stop offset="1" stop-color="#D0D0D0"/></linearGradient></defs></svg>
